symbols/web/fire_truck/materialsymbolssharp/fire_truck_wght200gradN25_24px.svg

<svg xmlns="http://www.w3.org/2000/svg" height="24" width="24"><path d="M7 20.1q-1.075 0-1.825-.75t-.75-1.825H2.05v-6.5h11V6.15h3.5V4.9h1.925v1.25h1.8l1.7 5.1v6.275h-2.4q0 1.075-.763 1.825-.762.75-1.812.75-1.075 0-1.825-.75t-.75-1.825h-4.85q0 1.075-.763 1.825-.762.75-1.812.75Zm0-.925q.7 0 1.175-.475.475-.475.475-1.15 0-.7-.475-1.187Q7.7 15.875 7 15.875q-.7 0-1.175.488-.475.487-.475 1.162 0 .7.475 1.175.475.475 1.175.475Zm10 0q.7 0 1.175-.475.475-.475.475-1.15 0-.7-.475-1.187-.475-.488-1.175-.488-.7 0-1.175.488-.475.487-.475 1.162 0 .7.475 1.175.475.475 1.175.475ZM2.975 11.95v4.65h1.65q.275-.725.913-1.188.637-.462 1.462-.462t1.463.462q.637.463.912 1.188h3.675v-4.65Zm11 4.65h.65q.275-.725.913-1.188.637-.462 1.462-.462t1.462.462q.638.463.913 1.188h1.675v-4.65h-7.075Zm0-5.575h6.95l-1.35-3.975h-5.6ZM2.05 9.95v-.8h1v-2.2h-1v-.8h9.3v.8h-1v2.2h1v.8Zm1.8-.8H6.3v-2.2H3.85Zm3.25 0h2.45v-2.2H7.1Zm5.95 2.8H2.975Zm.925 0h7.075-7.075Z"/></svg>

<svg xmlns="http://www.w3.org/2000/svg" height="24" width="24"><path d="M7 20.1Q5.925 20.1 5.175 19.35Q4.425 18.6 4.425 17.525H2.05V11.025H13.05V6.15H16.55V4.9H18.475V6.15H20.275L21.975 11.25V17.525H19.575Q19.575 18.6 18.812 19.35Q18.05 20.1 17 20.1Q15.925 20.1 15.175 19.35Q14.425 18.6 14.425 17.525H9.575Q9.575 18.6 8.812 19.35Q8.05 20.1 7 20.1ZM7 19.175Q7.7 19.175 8.175 18.7Q8.65 18.225 8.65 17.55Q8.65 16.85 8.175 16.363Q7.7 15.875 7 15.875Q6.3 15.875 5.825 16.363Q5.35 16.85 5.35 17.525Q5.35 18.225 5.825 18.7Q6.3 19.175 7 19.175ZM17 19.175Q17.7 19.175 18.175 18.7Q18.65 18.225 18.65 17.55Q18.65 16.85 18.175 16.363Q17.7 15.875 17 15.875Q16.3 15.875 15.825 16.363Q15.35 16.85 15.35 17.525Q15.35 18.225 15.825 18.7Q16.3 19.175 17 19.175ZM2.975 11.95V16.6H4.625Q4.9 15.875 5.538 15.412Q6.175 14.95 7 14.95Q7.825 14.95 8.463 15.412Q9.1 15.875 9.375 16.6H13.05V11.95ZM13.975 16.6H14.625Q14.9 15.875 15.538 15.412Q16.175 14.95 17 14.95Q17.825 14.95 18.462 15.412Q19.1 15.875 19.375 16.6H21.05V11.95H13.975ZM13.975 11.025H20.925L19.575 7.05H13.975ZM2.05 9.95V9.15H3.05V6.95H2.05V6.15H11.35V6.95H10.35V9.15H11.35V9.95ZM3.85 9.15H6.3V6.95H3.85ZM7.1 9.15H9.55V6.95H7.1ZM13.05 11.95H9.375Q9.1 11.95 8.463 11.95Q7.825 11.95 7 11.95Q6.175 11.95 5.538 11.95Q4.9 11.95 4.625 11.95H2.975ZM13.975 11.95H21.05H19.375Q19.1 11.95 18.462 11.95Q17.825 11.95 17 11.95Q16.175 11.95 15.538 11.95Q14.9 11.95 14.625 11.95H13.975Z"/></svg>
